X: 0
T: Den Toppede Høne Fra Vensyssel
C: Trad (Danish)
R: jig
M: 6/8
L: 1/8
K: Amaj
|: "A"A2A A2A | ABc dcB | A2A A2A | "E7"AGA BGE |
"A"A2A A2A | ABc d3 | "D"cBA GFG | "E7"B3 "A"A3 :|
|: "A"a3 A3 | cBc dcd | "D/F# (Bm)"f3 B3 | cBc dcd |
 "A"efg a3 | fdf a3 | "D"gfe ^def | "E7"e3 efg :|
|: "A"a3 a3 | a2e c2e | a3 a3 | "E7"gab gab |
 "A"a3 a3 | "A"a2e c2e |"D" f2e d2A |1,2 "E7"B3 "A"A3 :| "Last Time" "E7 "B2a ^g2a | 